X:1
T:Someone Is Looking to You
T:Someone Is Looking to You
T:Charles Hutchinson Gabriel, 1906
T:William McPherson Lighthall, 1901
T:Public Domain Courtesy of the Cyber Hymnal™
C:Charles Hutchinson Gabriel, 1906
Z:Public Domain
Z:Courtesy of the Cyber Hymnal™
%%score ( 1 2 ) 3
L:1/8
Q:1/4=95
M:6/8
K:Eb
V:1 treble 
V:2 treble 
V:3 bass 
V:1
 [EG]>[EG][EG] [EG][E^F][EG] | [EB]2 [FB] [GB]3 | [Ge][Bd][Ac] [GB][Gc][EG] | ([GB]3 [FA]3) | %4
w: 1.~Let your light shine wher- so-|e’er you go,|Some- one is look- ing to|you! *|
w: 2.~Some- one is grop- ing his|way to God,|Some- one is look- ing to|you! *|
w: 3.~Some- one your coun- sel will|sure- ly take,|Some- one is loo- king to|you! *|
w: 4.~Some- one has al- most ac-|cept- ed Him,|Some- one is look- ing to|you! *|
 [FA]>[FA][FA] [FA][=EG][FA] | [Ac]2 [Ac] [Ac]3 | [Ad]>[Ad][Ad] [Ac][Ac][Ac] | [GB]3- [GB]2 z || %8
w: Bright- er each day let it|gleam and glow,|Some- one is look- ing to|you! *|
w: Fol- low- ing on where your|feet have trod,|Some- one is look- ing to|you! *|
w: And by your life his de-|ci- sion make,|Some- one is look- ing to|you! *|
w: And may be lost if your|light grows dim,|Some- one is look- ing to|you! *|
"^Refrain" [Ge]<[Ge][Ge] [Ge]2 [EG] | [Ac]<[Ac][Ac] [Ac]2 z | [Ad]>[Ad][Ad] [Ad]2 [Ac] | %11
w: |||
w: Look- ing to you, yes,|look- ing to you!|Let your light shine the|
w: |||
w: |||
 [Ac]2 [GB] [GB]3 | [Ge]2 [Ge] [GB][EG][GB] | [Ac]<[Ac][Ac] !fermata![Ae]2 [Ec] | %14
w: |||
w: dark- ness through;|O be faith- ful, be|loy- al, and true, For|
w: |||
w: |||
 [EB]<[EB][Ec] [EG][EG][DF] | E3- E2 z |] %16
w: ||
w: some- one is look- ing to|you! *|
w: ||
w: ||
V:2
 x6 | x6 | x6 | x6 | x6 | x6 | x6 | x6 || x6 | x6 | x6 | x6 | x6 | x6 | x6 | E3- E2 x |] %16
V:3
 [E,B,]>[E,B,][E,B,] [E,B,][E,=A,][E,B,] | [E,G,]2 [E,A,] [E,B,]3 | %2
 [E,B,][E,B,][E,C] [E,E][E,E][E,B,] | ([B,,B,]3 [B,,B,]3) | %4
 [B,,B,]>[B,,B,][B,,B,] [B,,B,][B,,B,][B,,B,] | [B,,D]2 [B,,D] [B,,D]3 | %6
 [B,,F]>[B,,F][B,,F] [B,,D][B,,D][B,,D] | [E,E]3- [E,E]2 z || [E,B,]<[E,B,][E,B,] [E,B,]2 [E,B,] | %9
 [A,,E]<[A,,E][A,,E] [A,,E]2 z | [B,,B,]>[B,,B,][B,,B,] [B,,F]2 [B,,D] | [E,E]2 [E,E] [E,E]3 | %12
 [E,B,]2 [E,B,] [E,E][E,B,][E,E] | [A,E]<[A,E][A,E] !fermata![A,,C]2 [A,,A,] | %14
 [B,,G,]<[B,,G,][B,,A,] [B,,B,][B,,B,][B,,A,] | [E,G,]3- [E,G,]2 z |] %16

